X:94
T:Hughes’ Hornpipe,aka. RHu.094
S:R.Hughes MS,1823,Whitchurch,Shrops.
A:Whitchurch , Shropshire
Z:Neil Brookes 2006
N:Untitled in MS, my title.
N:Reminiscent of Brown’s/Quick’s Hp. but not enough to share a name.
M:4/4
L:1/8
Q:1/2=90
R:.Hornpipe
K:D
Ac|dcde dfaf|edcB A2 AG|FAdf gfed|c2e2e2 Ac|!
dcde dfaf|edcB A2AG|FAdf gece|d2d2d2::!
fg|afaf defd|cdec AFDF|DFAd gfed|cdef e2fg|!
afaf bgec|gege afdB|Acea bgec|d2d2d2:|

